X:170
T:Negus
M:6/8
L:1/8
B:Thompson's Compleat Collection of 200 Favourite Country Dances, vol. 3 (London, 1773)
Z:Transcribed and edited by Flynn Titford-Mock, 2007
Z:abc's:AK/Fiddler's Companion
K:G
G2B d2g | bag fed | cAe dBG | FAG FED | G2B d2g | bag fed | ^ceg fad | ge^c d3 :|
|: d2f a2c | afc {c}B3 | c2e dBG | EAG {G}F3 | G2B d2g | bag fed | cAe dBG | DGF G3 :|

